lib/assets/images/service_home.svg

<svg width="40" height="40" viewBox="0 0 40 40" fill="none" xmlns="http://www.w3.org/2000/svg">
<g clip-path="url(#clip0_3_3450)">
<path fill-rule="evenodd" clip-rule="evenodd" d="M20 0.0431881C31.039 0.0431881 40 8.99455 40 20.0216C40 31.0486 31.039 40 20 40C8.96104 40 0 31.0486 0 20.0216C0 8.99455 8.96104 0.0431881 20 0.0431881V0.0431881Z" fill="#24A79F"/>
<path fill-rule="evenodd" clip-rule="evenodd" d="M9.5 26.5V19.8829C9.5 18.6472 10.0081 17.4659 10.9051 16.6161L17.9368 9.95459C19.0939 8.85841 20.9061 8.8584 22.0632 9.95459L29.0949 16.6161C29.9919 17.4659 30.5 18.6472 30.5 19.8829V26.5C30.5 27.8807 29.3807 29 28 29H12C10.6193 29 9.5 27.8807 9.5 26.5ZM18.5 19.5C18.0858 19.5 17.75 19.8357 17.75 20.25V23.25C17.75 23.6642 18.0858 24 18.5 24H21.5C21.9142 24 22.25 23.6642 22.25 23.25V20.25C22.25 19.8357 21.9142 19.5 21.5 19.5H18.5Z" fill="white"/>
</g>
<defs>
<clipPath id="clip0_3_3450">
<rect width="40" height="40" fill="white"/>
</clipPath>
</defs>
</svg>

<svg width="40" height="40" fill="none" xmlns="http://www.w3.org/2000/svg"><g clip-path="url(#clip0_3_3450)" fill-rule="evenodd" clip-rule="evenodd"><path d="M20 .043c11.039 0 20 8.952 20 19.979S31.039 40 20 40 0 31.049 0 20.022C0 8.995 8.961.043 20 .043z" fill="#24A79F"/><path d="M9.5 26.5v-6.617a4.5 4.5 0 0 1 1.405-3.267l7.032-6.661a3 3 0 0 1 4.126 0l7.032 6.661a4.5 4.5 0 0 1 1.405 3.267V26.5A2.5 2.5 0 0 1 28 29H12a2.5 2.5 0 0 1-2.5-2.5zm9-7a.75.75 0 0 0-.75.75v3c0 .414.336.75.75.75h3a.75.75 0 0 0 .75-.75v-3a.75.75 0 0 0-.75-.75h-3z" fill="#fff"/></g><defs><clipPath id="clip0_3_3450"><path fill="#fff" d="M0 0h40v40H0z"/></clipPath></defs></svg>
